X:3096
T:John Stewart's
T:Spey in Spate, The
O:england
C:J. Scott Skinner
R:reel
S:Tommy McCarthy & Louise Costelloe
H:A version of the Scottish reel "The Spey in Spate"
D:Paddy Glackin: In Full Spate
M:C|
K:D
D2FD A,DFA|dcBA ^GAFD|EFGE B,EGB|gecA GECE|
D2FD A,DFA|dDcD BDAf|(3gfe fd ecdB|1 AFGE DA,B,C:|2 AFGE DEFA||
defd AF~F2|DFAd fagf|ebge BGED|CEAc egfe|
defd BAFA|dDcD BAAf|(3gfe fd ecdB|AFGE DEFA|
d2fd AF~F2|DFAd fagf|~e3f ~g3a|bagf eAce|
defd BAFA|dDcD BAAf|(3gfe fd ecdB|AFGE DA,B,C||
"variations"
D2FD A,DFA|dcBA ^GAFD|E2GE B,EGB|edcB AGFE|
D2FD A,DFA|dAcA BdAf|gefd ecdB|1 AFGE FDDC:|2 AFGE FDD2||
|:d2fd AdFA|DFAd fagf|e2ge BGED|CEAc egfe|
d2fd ADFA|DFAd fdef|gefd ecdB|1 AFGE FDD2:|2 AFGE FDDC||


